web/themes/custom/uswds_wioa/images/svg/icon-alert-triangle.svg

<?xml version="1.0" encoding="UTF-8"?>
<svg width="16px" height="16px" viewBox="0 0 16 16" version="1.1" xmlns="http://www.w3.org/2000/svg" xmlns:xlink="http://www.w3.org/1999/xlink">
    <!-- Generator: Sketch 52.3 (67297) - http://www.bohemiancoding.com/sketch -->
    <title></title>
    <desc>Created with Sketch.</desc>
    <g id="Symbols" stroke="none" stroke-width="1" fill="none" fill-rule="evenodd">
        <g id="UI-element-/-Icons-/-Warning" fill="#000000">
            <path d="M8,3 C8.55228475,3 9,3.44771525 9,4 L9,10 C9,10.5522847 8.55228475,11 8,11 C7.44771525,11 7,10.5522847 7,10 L7,4 C7,3.44771525 7.44771525,3 8,3 Z M8,12 C8.55228475,12 9,12.4477153 9,13 C9,13.5522847 8.55228475,14 8,14 C7.44771525,14 7,13.5522847 7,13 C7,12.4477153 7.44771525,12 8,12 Z M9.0001186,0.644230769 L15.8580747,14.1826923 C16.0545266,14.5576923 16.045597,15.0192308 15.8402155,15.3942308 C15.634834,15.7692308 15.2597895,16 14.8579561,16 L1.14204387,16 C0.740210506,16 0.365166031,15.7692308 0.159784532,15.3942308 C-0.0455969664,15.0192308 -0.0545265968,14.5576923 0.141925271,14.1826923 L6.9998814,0.644230769 C7.19633327,0.25 7.58030737,0 8,0 C8.41969263,0 8.80366673,0.25 9.0001186,0.644230769 Z" id=""></path>
        </g>
    </g>
</svg>

<svg width="16" height="16" xmlns="http://www.w3.org/2000/svg"><path d="M8 3a1 1 0 0 1 1 1v6a1 1 0 0 1-2 0V4a1 1 0 0 1 1-1zm0 9a1 1 0 1 1 0 2 1 1 0 0 1 0-2zM9 .644l6.858 13.539c.197.375.188.836-.018 1.211a1.13 1.13 0 0 1-.982.606H1.142a1.13 1.13 0 0 1-.982-.606 1.293 1.293 0 0 1-.018-1.211L7 .644C7.196.25 7.58 0 8 0c.42 0 .804.25 1 .644z" fill-rule="evenodd"/></svg>
